public/payments/crypto/tron.svg

<svg width="201" height="193" viewBox="0 0 201 193" fill="none" xmlns="http://www.w3.org/2000/svg">
<path d="M100.8 192.148C156.049 192.148 200.8 149.236 200.8 96.3238C200.8 43.4119 156.049 0.5 100.8 0.5C45.551 0.5 0.800003 43.4119 0.800003 96.3238C0.800003 149.236 45.5893 192.148 100.8 192.148Z" fill="#FF060A"/>
<path d="M157.045 79.1207C151.528 74.2165 143.865 66.7452 137.658 61.4579L137.275 61.228C136.662 60.7682 135.972 60.3851 135.244 60.1169C120.225 57.4349 50.3402 44.9061 48.9992 45.0594C48.6161 45.0977 48.2329 45.251 47.9264 45.4425L47.5816 45.7107C47.1602 46.1322 46.8153 46.6303 46.6238 47.205L46.5471 47.4349V48.6992V48.8908C54.4015 69.887 85.4743 138.623 91.6046 154.791C91.9877 155.902 92.6774 157.971 93.9801 158.086H94.2866C94.9762 158.086 97.9648 154.293 97.9648 154.293C97.9648 154.293 151.336 92.3008 156.739 85.7107C157.428 84.9061 158.041 84.0249 158.578 83.1054C158.731 82.3774 158.654 81.6494 158.386 80.9598C158.118 80.2701 157.62 79.6188 157.045 79.1207ZM111.605 86.3621L134.363 68.2778L147.735 80.0786L111.605 86.3621ZM102.754 85.1743L63.5586 54.3697L127.007 65.5958L102.754 85.1743ZM106.279 93.2203L146.394 87.0134L100.532 140.002L106.279 93.2203ZM58.233 57.4732L99.4973 90.9981L93.5203 140.04L58.233 57.4732Z" fill="white"/>
</svg>

<svg xmlns="http://www.w3.org/2000/svg" width="201" height="193" fill="none"><path fill="#FF060A" d="M100.8 192.15c55.25 0 100-42.91 100-95.83 0-52.9-44.75-95.82-100-95.82S.8 43.41.8 96.32c0 52.92 44.79 95.83 100 95.83Z"/><path fill="#fff" d="M157.04 79.12c-5.51-4.9-13.17-12.37-19.38-17.66l-.38-.23a8.04 8.04 0 0 0-2.04-1.11C120.22 57.43 50.34 44.9 49 45.06c-.38.04-.77.2-1.07.38l-.35.27c-.42.42-.76.92-.96 1.5l-.07.22v1.47c7.85 20.99 38.92 89.72 45.05 105.9.39 1.1 1.08 3.17 2.38 3.29h.3c.7 0 3.68-3.8 3.68-3.8s53.38-61.99 58.78-68.58c.69-.8 1.3-1.69 1.84-2.6.15-.73.07-1.46-.2-2.15a4.85 4.85 0 0 0-1.34-1.84Zm-45.43 7.24 22.75-18.08 13.38 11.8-36.14 6.28Zm-8.86-1.19-39.2-30.8 63.46 11.23-24.26 19.57Zm3.53 8.05 40.11-6.2L100.53 140l5.75-46.78ZM58.23 57.47 99.5 91l-5.98 49.04-35.29-82.57Z"/></svg>
